X:720
T:Heights of Cassino, The
S:As played by Iain MacInnes (Smalltalk)
Z:Nigel Gatherer
M:6/8
L:1/8
K:Amix
B/c/ | E>EE E<FA | c2e  c>BA | B>BB B2A | B<cB A>FD |
       E>EE E<FA | c2e  c>BA | c2E  c2B | A3-  A2  :|
c/d/ | e>cA c3   | c2e  c>BA | B>BB B2A | B<cB A>FD |
       e>cA c3   | c2e  c>BA | c2E  c2B | A3-  A2 
c/d/ | e>cA c3   | c2e  c>BA | B>BB B2A | B<cB A>FD |
       E>EE E<FA | c2e  c>BA | c2E  c2B | A3-  A2  ||
z    | E3   F>ED | E>EE c3   | c2e c>BA | B<cB A>FD |
       E3   F>ED | E>EE c3   | c2E  c2B | A3-  A2  :|
c/d/ | e>cA A>Bc | E>EE c3   | c2e c>BA | B<cB A>FD |
       e>cA A>Bc | E>EE c3   | c2E  c2B | A3-  A2  
c/d/ | e>cA A>Bc | E>EE c3   | c2e c>BA | B<cB A>FD |
       E3   F>ED | E>EE c3   | c2E  c2B | A3-  A2  ||
<end>
<start>
